X:74
T:Brenda Stubbert's
M:4/4
L:1/8
Q:100
R:reel
K:G
|:A2BA GAAB|A2Bd edBd|G2BA BGGB|BcBA BGAB| 
A2BA GAAB|A2Bd edBa|gedB GABd|e2dB eAAG:| 
:|(3AAA a2(3AAA g2|Aage ageg|G2BA BGGB|BcBA BGAB| 
|1(3AAA a2(3AAA g2|Aage agea|gedB GABd|e2dB eAAG:| 
|2A2BA GAAB|A2Bd edBa|gedB GABd|e2dB eAAG|

